X: 06061
T: MISS PRATT'S REEL
C: Bob McQuillen 27 July 82
B: Bob's Note Book 6 #61
%R: reel
Z: 2021 John Chambers <jc:trillian.mit.edu>
M: C
L: 1/8
K: G
|:G,B,DE G2DE | GBde dBAB | G,B,DE GED2 | B,DEG EDB,A, |\
| G,B,DE GABG | ABde gedB | gedB e2ge | dBGB AGEG :|
|:B2GB AGED | B,DEG E2B,A, | B,DEG A2GA | B2BG EGBA |\
| G4 A4 | B2dB AGED | B,A,B,D EGAB | dBGe dBAG :|
%%begintext align
%% Here's a
%% Cape Breton-style tune for fiddler Nancy
%% Pratt who loves Cape Breton music.
%% And we all love Nancy! I hope you
%% have fun with this tune, Nancy!
%%endtext
